X: 38353
T: Stamp's Landing
R: jig
M: 6/8
K: Gmajor
|:d2 B GAB|cAd BGG|d2 B GAB|cAd G3:|
|:FGA GDD|ADA BDD|FGA GDG|FGE D3:|
|:dGd eGe|dGc Bcd|dGd cDc|BDA BGG:|
K:C
|:E2 F GEc|BAG cEA|GEG cGe|fdB F2 G:|
K: G
|:d2 B GAB|cAd BGG|d2 B GAB|cAd G3:|

